X:1
T:The Old Tipparary Jig
R:jig
Z:robin.beech@mcgill.ca
M:6/8
K:G
dcA G3 | ABA G3 | cAF G3 | ADE FGA | dcA G3 | ABA GBd |
fdd edd | fdd cAF :: GBd g3 | gaf g3 | d2g gfg |
a2g fga | bag agf | gfe efe | dcA (3Bcd e | fed cAF :|
